X: 1
T: Yellow Stockings   [Em]
O: O'Farrell 1797
B: O'Farrell's National Irish Music 1797
Z: Paul Kinder
M: 9/8
L: 1/8
K: Em	% and G
E \
|: "Em"G2 B GEE GEE | G2 B GEE "D"FED | "Em"G2 B GEE GEE | "D"FGA ABG FED :|
|: "G"G2 c BGd BGd | G2 c BGd "D7"cBA | "G"G2 c BGd BGd | "Am"ecA "(A7)"ABG "D7"FED :|
|: "Em"B{c}BA GEE GEE | BdB GEE "D"FED | "Em"B{c}BA GEE GEE | "D"FGA ABG FED :|

%%sep 1 1 500

